X: 11
T: HORNPIPE: Frisco
C: C: Trad.; S: Julia Clifford
C: Set Leaders: Anton, Sophie
Z: Anton Zille ed.; Daemco at The Session
N: https://thesession.org/members/26966/sets/94459
R: Hornpipe
M: 4/4
L: 1/8
Q: 1/2=82
K: Gmaj
e>d|:(3BdB G>A B>de>f|(3gag f>g e>dB>A|F>Ad>A F>Ad>A|F>Ad>B A2 e>d|
(3BdB G>A (3Bcd e>f|(3gag f>g e>dB>A|F>Ae>d B>GA>F|1 G2 G>F G2 e>d:|2 G2 G>F G2 e>f||
|:(3gag e>g (3fgf d>f|(3efe c>e (3ded B>d|c>BA>G F>GA>B|(3Bcd e>d ^c>de>f|
g>ea>g f>dg>f|e>df>e d>fe>d|c>BA>G (3EFG A>B|1 (3c^cd e>f g2 d2:|2 (3c^cd e>f g2||

